X: 14091
T: SMOKEY'S HORNPIPE
C: Bob McQuillen May'09
B: Bob's Note Book 14 #91
%R: hornpipe, reel
%D:2009
Z: 2020 John Chambers <jc:trillian.mit.edu>
M: C
L: 1/8
K: D
AG \
| FABA FDFA | dfaf dBde | fdBd AFBA | G2E2 E2AG |
| FABA FDFA | dfaf dBde | fdBd ceag | f2d2 d2  :|
|: de \
| fafd efde | fded B2ef | gagf edBd | cdec A2FE |
| DFAF EGBG | FAdB Adfd | cdef gABc | d2f2 d2  :|
%%begintext align
%% It's always fun when
%% Jeff (AKA "Smokey") McKeon fires up his button
%% box. A member of Maine's great contra-dance
%% band, "Old Gray Goose", he's also a mainstay of
%% Doug Protsik's Maine Fiddle Camp. All the best to
%% you, Smokey - I love to hear you play that
%% accordion!
%%endtext

%%sep 1 1 500

%%sep 1 1 500

